lib/brands/logos/braze.svg

<svg xmlns="http://www.w3.org/2000/svg" fill="none" aria-hidden="true" viewBox="0 0 153 78"><g id="Braze"><path id="Vector" fill="black" d="M148.963 45.0959C148.963 45.0959 147.526 43.0804 147.082 42.5055C146.773 42.129 146.397 41.687 145.423 42.3509C143.235 43.8116 140.779 45.1613 137.751 45.1613C135.428 45.1613 133.416 44.5647 131.912 43.2804C132.554 42.9912 133.216 42.682 133.88 42.3054C137.463 40.3791 140.447 37.8997 141.885 36.4608C148.852 29.4866 146.686 19.0816 138.171 19.0816C130.142 19.0816 123.819 26.8962 123.819 35.5986C123.819 36.9028 123.971 38.7856 124.524 40.7556C124.06 40.9775 120.875 42.5274 117.072 44.6302C113.488 41.9507 107.915 43.1477 107.915 43.1477C113.09 35.775 120.897 24.2841 121.561 23.3327C122.047 22.6451 121.959 21.9811 121.494 20.9188C120.897 19.6346 120.3 19.4126 119.504 19.4126H103.292C102.763 19.4126 102.343 19.6564 102.186 20.2549C102.032 20.8515 101.701 22.9107 101.635 23.5983C101.568 24.3077 102.232 24.7497 102.918 24.7497H114.661L104.045 39.9589C103.978 40.0262 103.913 40.0916 103.845 40.1808C102.299 42.4164 99.9307 45.5379 97.1002 45.5379C95.3303 45.5379 93.142 44.2755 93.142 40.1353C93.142 36.0843 94.7791 27.5165 95.9724 20.8297C96.1052 20.1202 95.8633 19.4126 94.7118 19.4126H91.8377C91.1738 19.4126 90.7972 19.8128 90.7099 20.3876C90.5316 21.4063 90.3552 22.4013 90.2006 23.3763C88.7853 20.6532 86.5079 19.1016 83.2336 19.1016C80.1812 19.1016 77.218 20.233 74.7859 22.6669C68.7248 28.7335 69.8744 38.6309 64.6356 43.8771C62.3781 46.1364 59.8333 45.4488 59.8333 40.9994C59.8333 35.9296 61.7796 30.2615 63.9934 24.9044C64.39 23.9512 63.9698 23.1544 63.5496 22.5578C62.9529 21.6937 62.731 21.2499 61.6705 21.2499C60.0115 21.2499 57.3793 22.2922 52.095 22.2922C50.9672 22.2922 49.9048 22.2467 48.9298 22.1812C48.9971 21.3845 48.9971 20.8533 49.0208 20.6532C49.0644 19.9001 48.7989 19.4345 48.0021 19.4345H45.3045C44.3313 19.4345 44.0875 19.9001 43.9765 20.6751C43.5127 23.9075 42.6505 35.7969 36.6785 41.7524C35.9927 42.4382 35.5725 42.6601 35.5725 42.6601C37.055 39.7588 37.8518 35.9515 37.8518 32.9191C37.8518 24.4168 32.8312 19.1489 26.5063 19.1489C24.5818 19.1489 22.5463 19.7673 20.6235 20.9625C21.5076 15.7818 22.3261 10.934 22.6136 9.29504C22.8573 7.89983 22.3698 7.19222 21.9951 6.61558C21.3948 5.68786 20.8673 5.26584 20.0687 5.26584H10.7351C10.204 5.26584 9.80741 5.64238 9.6728 6.24085C9.51818 6.92664 9.18711 8.74205 9.14346 9.58246C9.09798 10.3137 9.60732 10.6011 10.204 10.6011H17.0163C15.934 17.2898 13.8548 30.2415 13.2345 33.4939C12.4414 37.6341 9.49817 42.7038 4.5467 44.521C3.92822 44.743 3.68447 45.3178 3.90458 45.9836C4.1265 46.6475 4.98873 48.3738 5.25432 48.8158C5.5199 49.2815 6.09472 49.5689 6.62588 49.3925C9.19075 48.4829 11.5555 47.0241 13.4146 45.1632C13.8785 44.6993 14.3223 44.19 14.7425 43.6352C16.9527 48.6394 21.5094 50.4566 26.1298 50.4566C31.3723 50.4566 37.035 48.6176 41.0151 44.6538C45.661 40.0043 47.5837 32.3443 48.4241 26.8999C49.5738 27.0527 50.8799 27.1854 52.1405 27.1854C55.3238 27.1854 58.0015 26.4997 58.0015 26.4997C58.0015 26.4997 54.7945 35.0456 54.7945 41.3341C54.7945 48.4411 58.1997 50.4548 61.9379 50.4548C65.807 50.4548 68.5283 47.5552 70.4511 43.9462C70.9604 45.074 71.7135 46.4019 72.7304 47.4206C74.4767 49.1705 76.645 50.4548 79.7847 50.4548C83.3682 50.4548 86.4424 48.3956 88.6325 45.2086C89.0291 46.5584 89.6276 47.6644 90.4461 48.4829C91.5503 49.5926 93.5858 50.4548 96.107 50.4548C100.464 50.4548 103.007 47.1787 109.797 47.1787C110.659 47.1787 111.434 47.3115 112.142 47.5552C109.022 49.458 106.059 51.4953 104.247 53.3107C98.6501 58.9134 98.3845 66.3079 102.057 69.9824C106.523 74.4554 112.85 72.1961 116.83 68.2324C121.474 63.5847 122.824 54.7951 120.148 48.794C123.398 47.0895 126.12 45.8289 126.76 45.5179C128.795 48.2847 132.157 50.4548 137.685 50.4548C141.643 50.4548 145.647 49.0596 148.765 46.6912C149.209 46.271 149.318 45.5834 148.965 45.0977L148.963 45.0959ZM28.8511 43.1913C27.5887 44.4537 26.0407 45.1395 24.4708 45.1395C23.0119 45.1395 21.7513 44.4756 20.689 43.4114C17.1055 39.8261 17.4147 30.9927 22.0387 26.3651C23.343 25.059 24.9347 24.3059 26.55 24.3059C28.0089 24.3059 29.2695 24.948 30.3318 26.0103C33.6934 29.3974 33.8917 38.1434 28.8493 43.1913H28.8511ZM80.0939 45.1177C76.2229 45.1177 73.7017 40.4464 74.4748 34.689C75.2497 28.9336 79.0097 24.2622 82.8789 24.2622C86.4624 24.2622 88.8963 28.2696 88.6307 33.4284C88.5198 34.1797 88.4306 34.8891 88.3651 35.5968C87.3246 40.9339 83.7629 45.1177 80.0939 45.1177ZM112.317 65.3983C107.252 70.468 100.795 64.0031 108.335 56.4522C110.039 54.7478 112.846 52.8669 115.767 51.1406C117.425 55.2571 116.12 61.5892 112.317 65.3983ZM132.641 26.476C136.445 22.6669 140.67 23.7966 140.67 27.4947C140.67 31.1037 136.357 35.0001 131.138 38.0106C130.629 38.2981 130.031 38.6291 129.434 38.9402C129.234 38.0325 129.125 37.0356 129.125 35.9078C129.103 32.8081 130.407 28.7116 132.641 26.476V26.476Z"/></g></svg>

<svg xmlns="http://www.w3.org/2000/svg" fill="none" aria-hidden="true" viewBox="0 0 153 78"><path fill="#000" d="M148.963 45.096s-1.437-2.016-1.881-2.59c-.309-.377-.685-.819-1.659-.155-2.188 1.46-4.644 2.81-7.672 2.81-2.323 0-4.335-.596-5.839-1.88a23.46 23.46 0 0 0 1.968-.976c3.583-1.926 6.567-4.405 8.005-5.844 6.967-6.974 4.801-17.38-3.714-17.38-8.029 0-14.352 7.815-14.352 16.518 0 1.304.152 3.187.705 5.157a160.1 160.1 0 0 0-7.452 3.874c-3.584-2.68-9.157-1.482-9.157-1.482 5.175-7.373 12.982-18.864 13.646-19.815.486-.688.398-1.352-.067-2.414-.597-1.284-1.194-1.506-1.99-1.506h-16.212c-.529 0-.949.243-1.106.842-.154.597-.485 2.656-.551 3.343-.067.71.597 1.152 1.283 1.152h11.743l-10.616 15.209a2.136 2.136 0 0 0-.2.222c-1.546 2.235-3.914 5.357-6.745 5.357-1.77 0-3.958-1.262-3.958-5.403 0-4.05 1.637-12.618 2.83-19.305.133-.71-.109-1.417-1.26-1.417h-2.874c-.664 0-1.04.4-1.128.975-.178 1.018-.355 2.013-.51 2.988-1.415-2.723-3.692-4.274-6.966-4.274-3.053 0-6.016 1.131-8.448 3.565-6.061 6.066-4.912 15.964-10.15 21.21-2.258 2.26-4.803 1.572-4.803-2.878 0-5.07 1.947-10.738 4.16-16.095.397-.953-.023-1.75-.443-2.346-.597-.864-.819-1.308-1.88-1.308-1.659 0-4.29 1.042-9.575 1.042a47.17 47.17 0 0 1-3.165-.11c.067-.797.067-1.329.09-1.529.044-.753-.221-1.218-1.018-1.218h-2.698c-.973 0-1.217.465-1.328 1.24-.463 3.232-1.325 15.122-7.297 21.077-.686.686-1.107.908-1.107.908 1.483-2.901 2.28-6.708 2.28-9.74 0-8.503-5.02-13.771-11.346-13.771-1.924 0-3.96.618-5.883 1.813.885-5.18 1.703-10.028 1.99-11.667.244-1.395-.243-2.103-.618-2.68-.6-.927-1.128-1.35-1.926-1.35h-9.334c-.531 0-.928.377-1.062.976-.155.686-.486 2.501-.53 3.341-.045.732.464 1.02 1.061 1.02h6.812c-1.082 6.688-3.161 19.64-3.781 22.892-.794 4.14-3.737 9.21-8.688 11.027-.619.222-.863.797-.642 1.463.222.663 1.084 2.39 1.35 2.832.265.465.84.753 1.37.576 2.566-.91 4.93-2.368 6.79-4.229.464-.464.907-.973 1.328-1.528 2.21 5.004 6.766 6.822 11.387 6.822 5.242 0 10.905-1.84 14.885-5.803 4.646-4.65 6.569-12.31 7.41-17.754 1.149.153 2.455.285 3.716.285 3.183 0 5.86-.685 5.86-.685s-3.206 8.546-3.206 14.834c0 7.107 3.405 9.12 7.143 9.12 3.869 0 6.59-2.899 8.513-6.508.51 1.128 1.263 2.456 2.28 3.475 1.746 1.75 3.914 3.034 7.054 3.034 3.583 0 6.657-2.06 8.847-5.246.397 1.35.996 2.455 1.814 3.274 1.104 1.11 3.14 1.972 5.661 1.972 4.357 0 6.9-3.276 13.69-3.276.862 0 1.637.133 2.345.376-3.12 1.903-6.083 3.94-7.895 5.756-5.597 5.602-5.862 12.997-2.19 16.671 4.466 4.473 10.793 2.214 14.773-1.75 4.644-4.647 5.994-13.437 3.318-19.438 3.25-1.704 5.972-2.965 6.612-3.276 2.035 2.767 5.397 4.937 10.925 4.937 3.958 0 7.962-1.395 11.08-3.764.444-.42.553-1.108.2-1.593l-.002-.002ZM28.851 43.19c-1.262 1.263-2.81 1.948-4.38 1.948-1.46 0-2.72-.663-3.782-1.728-3.584-3.585-3.274-12.418 1.35-17.046 1.304-1.306 2.896-2.06 4.511-2.06 1.459 0 2.72.643 3.782 1.705 3.361 3.387 3.56 12.133-1.483 17.181h.002Zm51.243 1.927c-3.871 0-6.392-4.672-5.62-10.429.776-5.755 4.536-10.427 8.405-10.427 3.583 0 6.017 4.008 5.752 9.166a40.49 40.49 0 0 0-.266 2.169c-1.04 5.337-4.602 9.52-8.271 9.52Zm32.223 20.28c-5.065 5.07-11.522-1.395-3.982-8.946 1.704-1.704 4.511-3.585 7.432-5.311 1.658 4.116.353 10.448-3.45 14.257Zm20.324-38.922c3.804-3.81 8.029-2.68 8.029 1.019 0 3.609-4.313 7.505-9.532 10.516a58.55 58.55 0 0 1-1.704.93c-.2-.909-.309-1.905-.309-3.033-.022-3.1 1.282-7.196 3.516-9.432Z"/></svg>
